icons/linear-new-symbol-upload-cloud-arrow-up.svg

<svg xmlns="http://www.w3.org/2000/svg" width="32px" height="32px" viewBox="0 0 32 32" version="1.1">
    <title>linear-new-symbol-upload-cloud-arrow-up</title>
    <g id="linear-new-symbol-upload-cloud-arrow-up" stroke-width="1" fill-rule="evenodd">
        <path d="M16.7071068,13.2928932 L20.7071068,17.2928932 C21.0976311,17.6834175 21.0976311,18.3165825 20.7071068,18.7071068 C20.3165825,19.0976311 19.6834175,19.0976311 19.2928932,18.7071068 L17,16.415 L17,28 C17,28.5522847 16.5522847,29 16,29 C15.4477153,29 15,28.5522847 15,28 L15,16.415 L12.7071068,18.7071068 C12.3466228,19.0675907 11.7793918,19.0953203 11.3871006,18.7902954 L11.2928932,18.7071068 C10.9023689,18.3165825 10.9023689,17.6834175 11.2928932,17.2928932 L15.2928932,13.2928932 C15.6834175,12.9023689 16.3165825,12.9023689 16.7071068,13.2928932 Z M16,4 C19.4901658,4 22.4890255,6.10353124 23.7979363,9.11195092 C27.3212484,9.72638461 30,12.8003643 30,16.5 C30,20.6421356 26.6421356,24 22.5,24 L20,24 L20,22 L22.5,22 L22.7212071,21.9956328 C25.65622,21.8795391 28,19.4634791 28,16.5 L27.9965529,16.3034327 L27.9817513,16.0487129 L27.9572632,15.811019 L27.9151609,15.5323859 L27.8400778,15.1779763 L27.7542459,14.8693489 L27.7408852,14.8268628 C27.7037077,14.7102628 27.6625144,14.5947636 27.617645,14.4811174 C27.5765035,14.376929 27.5323924,14.2745551 27.4853194,14.1738429 L27.401585,14.0025272 L27.2982392,13.8097059 L27.1910449,13.6272498 L27.0541638,13.4152654 L26.8926145,13.1896565 L26.6899564,12.9369301 L26.61638,12.8522481 C26.4860934,12.7053378 26.3481403,12.5655228 26.2030899,12.4333632 L26.0294072,12.2816236 L25.7451324,12.0589131 L25.5960152,11.953512 L25.3800301,11.8134306 L25.0520845,11.6266872 L24.7701261,11.4888754 L24.7336918,11.4725039 C24.6313473,11.4269606 24.527184,11.3843868 24.4214821,11.344971 C23.8233262,11.1219213 23.1759012,11 22.5,11 L22.3268156,11.0031679 C21.9865112,9.55927241 21.1647093,8.30123386 20.0401873,7.40782952 L19.899207,7.29897426 L19.7010039,7.15586638 L19.5167174,7.03258864 L19.3462861,6.92657784 L19.1131904,6.79277351 L18.9340552,6.69842704 L18.7214852,6.59551382 L18.3760726,6.44798283 L18.1290015,6.35668058 L17.7854227,6.24829674 L17.5406147,6.18367484 L17.284248,6.12685198 L16.9597285,6.07035916 L16.6973429,6.03696914 L16.5229045,6.02072792 C16.3502512,6.00699039 16.175942,6 16,6 L15.782,6.004 L15.4523405,6.02274486 L15.1541123,6.05453981 L14.8365043,6.10383667 L14.5614754,6.15972378 L14.419113,6.19359023 C14.2701514,6.23079985 14.1230875,6.27320139 13.9782176,6.32056927 L13.7128052,6.41381597 L13.5131659,6.49267323 L13.2483372,6.60945981 L13.029452,6.71695614 L12.8275396,6.82543842 C12.7329162,6.87842667 12.6400708,6.93354527 12.5487525,6.99087111 L12.357159,7.11593044 L12.1067541,7.29441354 L11.8668928,7.48299263 L11.6141739,7.70259914 L11.4599768,7.84830912 L11.2435338,8.06978025 L11.2001224,8.11682068 C11.127931,8.19588834 11.0575043,8.27687534 10.989086,8.35958452 L10.8348962,8.55330594 L10.6468682,8.81194397 L10.4215179,9.16183529 L10.3937762,9.20853373 C10.2498382,9.45320933 10.1211849,9.7087483 10.0095468,9.97321535 L9.97076947,10.0667365 C9.7236699,10.6790217 9.56701416,11.3379193 9.51772948,12.0264797 C9.34753864,12.0089717 9.17481704,12 9,12 C8.35761545,12 7.74352522,12.1211423 7.17932834,12.341828 L6.89794756,12.462007 L6.7162135,12.5508621 L6.5303833,12.6514771 L6.31996235,12.7781833 L6.15928835,12.8847942 L5.91601037,13.0641175 L5.7400628,13.208737 L5.58381119,13.3489966 L5.38615185,13.5445429 L5.28930404,13.6487114 L5.15068732,13.8087452 C5.09317479,13.8780429 5.03755979,13.9488354 4.9838505,14.0211282 L4.84406532,14.2190948 L4.67254316,14.4937315 L4.53982725,14.7377952 L4.44497187,14.9350614 L4.32350703,15.2268855 L4.25097051,15.4314762 L4.17086876,15.6992564 L4.10497855,15.9758698 L4.07596375,16.1269312 L4.0410128,16.3565991 C4.03454552,16.406942 4.02882695,16.4575193 4.02386862,16.5083194 C4.00808023,16.6700776 4,16.8340952 4,17 C4,17.1270704 4.00474017,17.2530336 4.01405334,17.3777225 C4.02589768,17.5362999 4.04513853,17.6928161 4.07143201,17.8469274 L4.10203476,18.0098833 L4.15198162,18.2282714 L4.17881412,18.3299587 C4.26804713,18.6542724 4.38932813,18.9657848 4.53895171,19.2604812 L4.6636473,19.4908779 L4.72279378,19.5909151 L4.82291586,19.7490971 L4.92794528,19.9021174 L5.06730151,20.0880432 L5.25750472,20.315764 L5.35183531,20.4192188 L5.53766706,20.6072589 L5.6437496,20.706206 L5.87483574,20.9032252 L6.08835828,21.0652373 L6.29103655,21.2032762 L6.45285429,21.3034715 L6.70425321,21.4429672 L6.93205153,21.553661 L7.17663471,21.6571133 L7.47593706,21.7634736 L7.69661067,21.8284195 L7.92920026,21.8850731 L8.20114375,21.936528 C8.39164516,21.9671231 8.58589868,21.9869635 8.78311038,21.9953805 L9,22 L12,22 L12,24 L9,24 C5.13400675,24 2,20.8659932 2,17 C2,13.527341 4.52872744,10.645298 7.84525834,10.0947948 C8.88241864,6.57178735 12.1408728,4 16,4 Z" id="&#24418;&#29366;" fill-rule="nonzero" />
    </g>
</svg>

<svg xmlns="http://www.w3.org/2000/svg" viewBox="0 0 32 32"><path fill="currentColor" d="m16.707 13.293 4 4a1 1 0 0 1-1.414 1.414L17 16.415V28a1 1 0 0 1-2 0V16.415l-2.293 2.292a1 1 0 0 1-1.32.083l-.094-.083a1 1 0 0 1 0-1.414l4-4a1 1 0 0 1 1.414 0M16 4a8.502 8.502 0 0 1 7.798 5.112A7.502 7.502 0 0 1 22.5 24H20v-2h2.5l.221-.004A5.5 5.5 0 0 0 28 16.5l-.003-.197-.015-.254-.025-.238-.042-.279-.075-.354-.086-.309-.013-.042a5.454 5.454 0 0 0-.256-.653l-.083-.171-.104-.193-.107-.183-.137-.212-.161-.225-.203-.253-.074-.085a5.535 5.535 0 0 0-.413-.419l-.174-.151-.284-.223-.149-.105-.216-.14-.328-.187-.282-.138-.036-.016A5.463 5.463 0 0 0 22.5 11l-.173.003a6.502 6.502 0 0 0-2.287-3.595l-.14-.109-.199-.143-.184-.123-.17-.106-.234-.134-.179-.095-.213-.102-.345-.148-.247-.091-.344-.109-.244-.064-.257-.057-.324-.057-.263-.033-.174-.016A6.59 6.59 0 0 0 16 6l-.218.004-.33.019-.298.032-.317.049-.276.056-.142.034c-.149.037-.296.08-.44.127l-.266.093-.2.079-.265.116-.219.108-.201.108a6.468 6.468 0 0 0-.28.166l-.19.125-.251.178-.24.189-.253.22-.154.145-.216.222-.044.047c-.072.079-.142.16-.21.243l-.155.193-.188.259-.225.35-.028.047c-.144.244-.273.5-.384.764l-.04.094a6.463 6.463 0 0 0-.452 1.96 5.058 5.058 0 0 0-2.339.315l-.281.12-.182.089-.186.1-.21.127-.16.107-.244.18-.176.144-.156.14-.198.196-.097.104-.138.16c-.058.069-.113.14-.167.212l-.14.198-.171.275-.133.244-.095.197-.121.292-.073.204-.08.268-.066.277-.029.15-.035.23a5.011 5.011 0 0 0 .03 1.49l.031.164.05.218.027.102c.089.324.21.636.36.93l.125.23.059.1.1.16.105.152.14.186.19.228.094.103.186.188.106.1.23.196.214.162.203.138.162.1.251.14.228.11.245.104.299.106.22.065.233.057.272.052c.19.03.385.05.582.058L9 22h3v2H9a7 7 0 0 1-1.155-13.905A8.503 8.503 0 0 1 16 4"/></svg>
